;Generated by Cura LulzBot Edition GCodeWriter Version: 3.6.37
;FLAVOR:Marlin
;TIME:2571
;Filament used: 0.760575m
;Layer height: 0.25
;Generated with Cura_SteamEngine 3.6.37-win10
M82 ;absolute extrusion mode
;This G-Code has been generated specifically for the LulzBot Mini 2 with SE 0.5mm Tool Head
;
;The following lines can be uncommented for printer specific fine tuning
;More information can be found at https://marlinfw.org/meta/gcode/
;
;M92 E420                 ;Set Axis Steps-per-unit
;M301 P21.0 I1.78 D61.93  ;Set Hotend PID
;M906 E960                ;TMC Motor Current
;
M73 P0                  ; clear GLCD progress bar
M75 					; Start GLCD Print Timer
G26 					; clear potential 'probe fail' condition
M107 					; disable fans
M420 S0                 ; disable leveling matrix
G90 					; absolute positioning
M82 					; set extruder to absolute mode
G92 E0 					; set extruder position to 0
M140 S60.0 ; start bed heating up
G28 					; home all axes
G0 X0 Y187 Z156 F200 			; move away from endstops
M117 Mini 2 Wiping...			; progress indicator message on LCD
M109 R140 	; soften filament before retraction
G1 E-15 F75 				; retract filament
M109 R140                  ; wait for extruder to reach wiping temp
;M206 X0 Y0 Z0              ; uncomment to adjust wipe position (+X ~ nozzle moves left)(+Y ~ nozzle moves forward)(+Z ~ nozzle moves down)
G12                         ; wiping sequence
M206 X0 Y0 Z0               ; reseting stock nozzle position ### CAUTION: changing this line can affect print quality ###
G28 X0 Y0				; home X and Y
M109 R140	; wait for extruder to reach probe temp
M204 S300				; set probing acceleration
G29					; start auto-leveling sequence
M420 S1                     ; enable leveling matrix
M425 Z			     		; use measured Z backlash for compensation
M425 Z F0		     		; turn off measured Z backlash compensation. (if activated in the quality settings, this command will automatically be ignored)
M204 S2000				; restore standard acceleration
G1 X5 Y15 Z10 F5000			; move up off last probe point
G4 S1					; pause
M400					; wait for moves to finish
M117 Heating...				; progress indicator message on LCD
M109 R210 ; wait for extruder to reach initial printing temp
M190 R60.0 ; wait for bed to reach printing temp
G1 Z2 E0 F75				; prime tiny bit of filament into the nozzle
M117 Mini 2 Printing...		; progress indicator message on LCD

M221 S100 T0
G92 E0
G1 F600 E-1.75
;LAYER_COUNT:80
;LAYER:0
M425 F1.0
M107
G0 F2625 X67.467 Y68.058 Z0.425
;TYPE:SKIRT
G1 F600 E0
G1 F900 X68.056 Y67.47 E0.02772
G1 X70.248 Y65.671 E0.12218
G1 X70.941 Y65.208 E0.14994
G1 X73.446 Y63.869 E0.24456
G1 X74.211 Y63.551 E0.27216
G1 X76.928 Y62.724 E0.36676
G1 X77.747 Y62.561 E0.39458
G1 X80.564 Y62.282 E0.48887
G1 X81.398 Y62.281 E0.51665
G1 X84.253 Y62.561 E0.61221
G1 X85.072 Y62.724 E0.64002
G1 X87.775 Y63.544 E0.73411
G1 X88.545 Y63.863 E0.76188
G1 X91.054 Y65.205 E0.85666
G1 X91.748 Y65.669 E0.88447
G1 X93.958 Y67.485 E0.97975
G1 X94.547 Y68.075 E1.00752
G1 X96.33 Y70.25 E1.1012
G1 X96.791 Y70.94 E1.12884
G1 X98.137 Y73.458 E1.22395
G1 X98.456 Y74.228 E1.25171
G1 X99.277 Y76.933 E1.34587
G1 X99.439 Y77.748 E1.37355
G1 X99.718 Y80.564 E1.46782
G1 X99.718 Y81.405 E1.49583
G1 X99.431 Y84.283 E1.59217
G1 X99.268 Y85.097 E1.61982
G1 X98.451 Y87.785 E1.71341
G1 X98.132 Y88.555 E1.74117
G1 X96.79 Y91.062 E1.83589
G1 X96.325 Y91.756 E1.86372
G1 X94.51 Y93.962 E1.95888
G1 X93.921 Y94.55 E1.9866
G1 X91.741 Y96.336 E2.08047
G1 X91.043 Y96.801 E2.10841
G1 X88.496 Y98.155 E2.2045
G1 X87.719 Y98.474 E2.23247
G1 X84.989 Y99.291 E2.3274
G1 X84.185 Y99.449 E2.35469
G1 X81.415 Y99.72 E2.4474
G1 X80.584 Y99.72 E2.47508
G1 X77.763 Y99.442 E2.56951
G1 X76.946 Y99.279 E2.59726
G1 X74.213 Y98.45 E2.69239
G1 X73.442 Y98.13 E2.7202
G1 X70.934 Y96.788 E2.81495
G1 X70.242 Y96.326 E2.84266
G1 X68.058 Y94.533 E2.93679
G1 X67.469 Y93.944 E2.96453
G1 X65.668 Y91.749 E3.05911
G1 X65.206 Y91.056 E3.08686
G1 X63.869 Y88.554 E3.18135
G1 X63.551 Y87.788 E3.20898
G1 X62.723 Y85.067 E3.30372
G1 X62.56 Y84.247 E3.33157
G1 X62.281 Y81.418 E3.42626
G1 X62.281 Y80.575 E3.45434
G1 X62.569 Y77.713 E3.55016
G1 X62.732 Y76.902 E3.57771
G1 X63.551 Y74.21 E3.67144
G1 X63.87 Y73.442 E3.69914
G1 X65.212 Y70.934 E3.79389
G1 X65.674 Y70.242 E3.82161
G1 X67.467 Y68.058 E3.91574
G0 F2625 X67.854 Y68.376
G1 F900 X68.373 Y67.856 E3.94021
G1 X70.565 Y66.057 E4.03467
G1 X71.176 Y65.649 E4.05914
G1 X73.681 Y64.31 E4.15376
G1 X74.357 Y64.03 E4.17813
G1 X77.074 Y63.203 E4.27273
G1 X77.796 Y63.058 E4.29726
G1 X80.613 Y62.779 E4.39156
G1 X81.349 Y62.779 E4.41607
G1 X84.204 Y63.059 E4.51163
G1 X84.927 Y63.202 E4.53618
G1 X87.63 Y64.022 E4.63027
G1 X88.31 Y64.304 E4.65479
G1 X90.819 Y65.646 E4.74957
G1 X91.431 Y66.056 E4.77411
G1 X93.641 Y67.872 E4.86939
G1 X94.16 Y68.392 E4.89386
G1 X95.943 Y70.567 E4.98755
G1 X96.35 Y71.176 E5.01195
G1 X97.696 Y73.694 E5.10705
G1 X97.977 Y74.373 E5.13153
G1 X98.798 Y77.078 E5.22569
G1 X98.942 Y77.797 E5.25012
G1 X99.221 Y80.613 E5.34438
G1 X99.22 Y81.355 E5.3691
G1 X98.933 Y84.233 E5.46544
G1 X98.79 Y84.952 E5.48986
G1 X97.973 Y87.64 E5.58344
G1 X97.691 Y88.319 E5.60793
G1 X96.349 Y90.826 E5.70265
G1 X95.939 Y91.439 E5.72722
G1 X94.124 Y93.645 E5.82238
G1 X93.605 Y94.163 E5.8468
G1 X91.425 Y95.949 E5.94068
G1 X90.808 Y96.359 E5.96535
G1 X88.261 Y97.713 E6.06144
G1 X87.576 Y97.995 E6.08611
G1 X84.846 Y98.812 E6.18104
G1 X84.136 Y98.951 E6.20514
G1 X81.366 Y99.222 E6.29785
G1 X80.633 Y99.222 E6.32226
G1 X77.812 Y98.944 E6.41669
G1 X77.091 Y98.801 E6.44117
G1 X74.358 Y97.972 E6.5363
G1 X73.678 Y97.689 E6.56084
G1 X71.17 Y96.347 E6.65559
G1 X70.56 Y95.939 E6.68003
G1 X68.376 Y94.146 E6.77416
G1 X67.856 Y93.627 E6.79863
G1 X66.055 Y91.432 E6.89321
G1 X65.647 Y90.82 E6.91771
G1 X64.31 Y88.318 E7.01221
G1 X64.029 Y87.643 E7.03656
G1 X63.201 Y84.922 E7.1313
G1 X63.057 Y84.198 E7.15589
G1 X62.778 Y81.369 E7.25058
G1 X62.779 Y80.626 E7.27533
G1 X63.067 Y77.764 E7.37115
G1 X63.21 Y77.048 E7.39547
G1 X64.029 Y74.356 E7.4892
G1 X64.311 Y73.678 E7.51366
G1 X65.653 Y71.17 E7.60841
G1 X66.061 Y70.56 E7.63286
G1 X67.854 Y68.376 E7.72698
G0 F2625 X68.24 Y68.693
G1 F900 X68.69 Y68.243 E7.74818
G1 X70.882 Y66.444 E7.84264
G1 X71.412 Y66.09 E7.86387
G1 X73.917 Y64.751 E7.95848
G1 X74.503 Y64.508 E7.97962
G1 X77.22 Y63.681 E8.07422
G1 X77.846 Y63.556 E8.09548
G1 X80.663 Y63.277 E8.18978
G1 X81.3 Y63.277 E8.211
G1 X84.155 Y63.557 E8.30655
G1 X84.781 Y63.681 E8.32781
G1 X87.484 Y64.501 E8.4219
G1 X88.074 Y64.745 E8.44317
G1 X90.583 Y66.087 E8.53795
G1 X91.113 Y66.442 E8.5592
G1 X93.323 Y68.258 E8.65448
G1 X93.773 Y68.709 E8.6757
G1 X95.556 Y70.884 E8.76938
G1 X95.909 Y71.412 E8.79054
G1 X97.255 Y73.93 E8.88565
G1 X97.499 Y74.518 E8.90685
G1 X98.32 Y77.223 E9.00102
G1 X98.444 Y77.847 E9.02221
G1 X98.723 Y80.663 E9.11647
G1 X98.723 Y81.305 E9.13786
G1 X98.436 Y84.183 E9.2342
G1 X98.312 Y84.806 E9.25536
G1 X97.495 Y87.494 E9.34894
G1 X97.25 Y88.083 E9.37019
G1 X95.908 Y90.59 E9.46491
G1 X95.553 Y91.121 E9.48619
G1 X93.738 Y93.327 E9.58135
G1 X93.288 Y93.776 E9.60252
G1 X91.108 Y95.562 E9.69639
G1 X90.574 Y95.918 E9.71777
G1 X88.027 Y97.272 E9.81386
G1 X87.433 Y97.516 E9.83525
G1 X84.703 Y98.333 E9.93017
G1 X84.087 Y98.454 E9.95108
G1 X81.317 Y98.725 E10.04379
G1 X80.682 Y98.724 E10.06494
G1 X77.861 Y98.446 E10.15937
G1 X77.237 Y98.322 E10.18056
G1 X74.504 Y97.493 E10.27569
G1 X73.914 Y97.249 E10.29696
G1 X71.406 Y95.907 E10.39171
G1 X70.877 Y95.553 E10.41291
G1 X68.693 Y93.76 E10.50704
G1 X68.242 Y93.31 E10.52826
G1 X66.441 Y91.115 E10.62284
G1 X66.088 Y90.585 E10.64405
G1 X64.751 Y88.083 E10.73855
G1 X64.508 Y87.497 E10.75968
G1 X63.68 Y84.776 E10.85442
G1 X63.555 Y84.149 E10.87572
G1 X63.276 Y81.32 E10.97041
G1 X63.276 Y80.676 E10.99186
G1 X63.564 Y77.814 E11.08768
G1 X63.689 Y77.193 E11.10878
G1 X64.508 Y74.501 E11.20251
G1 X64.751 Y73.914 E11.22367
G1 X66.093 Y71.406 E11.31842
G1 X66.447 Y70.877 E11.33962
G1 X68.24 Y68.693 E11.43375
G1 F600 E9.68375
;MESH:
G0 F2625 X72.461 Y68.481
G0 X73.372 Y69.588
G0 X83.669 Y67.618
G0 X83.688 Y67.52
;TYPE:WALL-INNER
G1 F600 E11.43375
G1 F900 X86.259 Y68.299 E11.52323
G1 X88.639 Y69.572 E11.61314
G1 X90.72 Y71.28 E11.70282
G1 X92.428 Y73.361 E11.7925
G1 X93.701 Y75.741 E11.8824
G1 X94.48 Y78.312 E11.97189
G1 X94.746 Y81 E12.06186
G1 X94.48 Y83.688 E12.15184
G1 X93.701 Y86.259 E12.24133
G1 X92.428 Y88.639 E12.33123
G1 X90.72 Y90.72 E12.42091
G1 X88.639 Y92.428 E12.51059
G1 X86.259 Y93.701 E12.60049
G1 X83.688 Y94.48 E12.68998
G1 X81 Y94.746 E12.77995
G1 X78.312 Y94.48 E12.86993
G1 X75.741 Y93.701 E12.95942
G1 X73.361 Y92.428 E13.04932
G1 X71.28 Y90.72 E13.139
G1 X69.572 Y88.639 E13.22868
G1 X68.299 Y86.259 E13.31858
G1 X67.52 Y83.688 E13.40807
G1 X67.254 Y81 E13.49805
G1 X67.52 Y78.312 E13.58802
G1 X68.299 Y75.741 E13.67751
G1 X69.572 Y73.361 E13.76741
G1 X71.28 Y71.28 E13.85709
G1 X73.361 Y69.572 E13.94677
G1 X75.741 Y68.299 E14.03668
G1 X78.312 Y67.52 E14.12616
G1 X81 Y67.254 E14.21614
G1 X83.688 Y67.52 E14.30611
G0 F2625 X83.782 Y67.026
;TYPE:WALL-OUTER
G1 F900 X86.454 Y67.836 E14.39912
G1 X88.915 Y69.152 E14.49208
G1 X91.075 Y70.925 E14.58516
G1 X92.848 Y73.085 E14.67825
G1 X94.164 Y75.546 E14.77121
G1 X94.974 Y78.218 E14.86422
G1 X95.249 Y81 E14.95734
G1 X94.974 Y83.782 E15.05046
G1 X94.164 Y86.454 E15.14346
G1 X92.848 Y88.915 E15.23642
G1 X91.075 Y91.075 E15.32951
G1 X88.915 Y92.848 E15.42259
G1 X86.454 Y94.164 E15.51556
G1 X83.782 Y94.974 E15.60856
G1 X81 Y95.249 E15.70168
G1 X78.218 Y94.974 E15.7948
G1 X75.546 Y94.164 E15.88781
G1 X73.085 Y92.848 E15.98077
G1 X70.925 Y91.075 E16.07385
G1 X69.152 Y88.915 E16.16694
G1 X67.836 Y86.454 E16.2599
G1 X67.026 Y83.782 E16.35291
G1 X66.751 Y81 E16.44603
G1 X67.026 Y78.218 E16.53915
G1 X67.836 Y75.546 E16.63215
G1 X69.152 Y73.085 E16.72512
G1 X70.925 Y70.925 E16.8182
G1 X73.085 Y69.152 E16.91129
G1 X75.546 Y67.836 E17.00425
G1 X78.218 Y67.026 E17.09725
G1 X81 Y66.751 E17.19037
G1 X83.782 Y67.026 E17.28349
G0 F2625 X84.021 Y67.098
G0 X83.846 Y67.671
G0 X83.594 Y68.004
;TYPE:SKIN
G1 F900 X86.071 Y68.754 E17.3697
G1 X88.367 Y69.983 E17.45645
G1 X90.372 Y71.628 E17.54284
G1 X92.017 Y73.633 E17.62923
G1 X93.246 Y75.929 E17.71598
G1 X93.996 Y78.406 E17.80219
G1 X94.254 Y81 E17.88902
G1 X93.996 Y83.594 E17.97585
G1 X93.246 Y86.071 E18.06206
G1 X92.017 Y88.367 E18.14881
G1 X90.372 Y90.372 E18.2352
G1 X88.367 Y92.017 E18.32159
G1 X86.071 Y93.246 E18.40834
G1 X83.594 Y93.996 E18.49455
G1 X81 Y94.254 E18.58138
G1 X78.406 Y93.996 E18.66821
G1 X75.929 Y93.246 E18.75442
G1 X73.633 Y92.017 E18.84117
G1 X71.628 Y90.372 E18.92756
G1 X69.983 Y88.367 E19.01395
G1 X68.754 Y86.071 E19.1007
G1 X68.004 Y83.594 E19.18691
G1 X67.746 Y81 E19.27374
G1 X68.004 Y78.406 E19.36057
G1 X68.754 Y75.929 E19.44678
G1 X69.983 Y73.633 E19.53353
G1 X71.628 Y71.628 E19.61992
G1 X73.633 Y69.983 E19.70631
G1 X75.929 Y68.754 E19.79306
G1 X78.406 Y68.004 E19.87927
G1 X81 Y67.746 E19.9661
G1 X83.594 Y68.004 E20.05293
G0 F2625 X90.386 Y72.001
G1 F900 X89.998 Y71.613 E20.07121
G0 F2625 X87.396 Y69.718
G1 F900 X92.28 Y74.603 E20.30131
G1 X92.368 Y74.691
G0 F2625 X93.058 Y76.088
G1 F900 X85.911 Y68.94 E20.63801
G1 X85.823 Y68.852
G0 F2625 X84.897 Y68.633
G1 F900 X93.365 Y77.102 E21.03695
G1 X93.453 Y77.19
G0 F2625 X93.673 Y78.116
G1 F900 X83.882 Y68.326 E21.49816
G0 F2625 X83.022 Y68.173
G1 F900 X93.825 Y78.976 E22.00706
G0 F2625 X93.904 Y79.762
G1 F900 X82.237 Y68.095 E22.55667
G0 F2625 X81.452 Y68.017
G1 F900 X93.982 Y80.547 E23.14694
G1 X94.07 Y80.635
G0 F2625 X93.937 Y81.916
G1 F900 X80.084 Y68.063 E23.79952
G0 F2625 X80.727 Y67.999
G1 F900 X94 Y81.272 E24.42479
G1 X94.088 Y81.36
G0 F2625 X93.872 Y82.558
G1 F900 X79.441 Y68.127 E25.1046
G0 F2625 X78.797 Y68.191
G1 F900 X93.809 Y83.202 E25.81176
G0 F2625 X93.699 Y83.799
G1 F900 X78.2 Y68.3 E26.54189
G0 F2625 X77.658 Y68.465
G1 F900 X93.534 Y84.342 E27.2898
G0 F2625 X93.369 Y84.884
G1 F900 X77.114 Y68.629 E28.05554
G0 F2625 X76.572 Y68.794
G1 F900 X93.205 Y85.427 E28.83909
G0 F2625 X93.041 Y85.97
G1 F900 X76.029 Y68.958 E29.64049
G0 F2625 X75.566 Y69.202
G1 F900 X92.797 Y86.433 E30.4522
G0 F2625 X92.55 Y86.893
G1 F900 X75.106 Y69.449 E31.27396
G0 F2625 X74.645 Y69.695
G1 F900 X92.303 Y87.353 E32.10579
G0 F2625 X92.057 Y87.814
G1 F900 X74.184 Y69.942 E32.94772
G0 F2625 X73.73 Y70.194
G1 F900 X91.805 Y88.269 E33.7992
G0 F2625 X91.486 Y88.658
G1 F900 X73.341 Y70.513 E34.65397
G0 F2625 X72.952 Y70.831
G1 F900 X91.167 Y89.046 E35.51205
G0 F2625 X90.849 Y89.435
G1 F900 X72.564 Y71.15 E36.37342
G0 F2625 X72.176 Y71.469
G1 F900 X90.53 Y89.823 E37.23804
G0 F2625 X90.211 Y90.211
G1 F900 X71.787 Y71.787 E38.10595
G0 F2625 X71.468 Y72.175
G1 F900 X89.823 Y90.53 E38.97062
G0 F2625 X89.434 Y90.849
G1 F900 X71.149 Y72.564 E39.83199
G0 F2625 X70.83 Y72.952
G1 F900 X89.045 Y91.167 E40.69006
G0 F2625 X88.657 Y91.486
G1 F900 X70.512 Y73.341 E41.54483
G0 F2625 X70.193 Y73.729
G1 F900 X88.268 Y91.804 E42.39631
G0 F2625 X87.814 Y92.056
G1 F900 X69.941 Y74.183 E43.23827
G0 F2625 X69.695 Y74.645
G1 F900 X87.353 Y92.302 E44.07008
G0 F2625 X86.892 Y92.549
G1 F900 X69.448 Y75.105 E44.89183
G0 F2625 X69.201 Y75.565
G1 F900 X86.432 Y92.796 E45.70355
G0 F2625 X85.969 Y93.04
G1 F900 X68.957 Y76.028 E46.50495
G0 F2625 X68.793 Y76.571
G1 F900 X85.426 Y93.205 E47.28852
G0 F2625 X84.883 Y93.369
G1 F900 X68.628 Y77.114 E48.05426
G0 F2625 X68.464 Y77.657
G1 F900 X84.341 Y93.533 E48.80217
G0 F2625 X83.799 Y93.698
G1 F900 X68.3 Y78.199 E49.5323
G0 F2625 X68.19 Y78.797
G1 F900 X83.201 Y93.808 E50.23943
G0 F2625 X82.558 Y93.871
G1 F900 X68.126 Y79.44 E50.91927
G0 F2625 X68.062 Y80.083
G1 F900 X81.915 Y93.936 E51.57186
G0 F2625 X81.272 Y93.999
G1 F900 X67.998 Y80.726 E52.19715
G0 F2625 X68.016 Y81.451
G1 F900 X80.547 Y93.982 E52.78746
G0 F2625 X79.761 Y93.903
G1 F900 X68.095 Y82.237 E53.33702
G0 F2625 X68.172 Y83.022
G1 F900 X78.976 Y93.825 E53.84595
G0 F2625 X78.116 Y93.672
G1 F900 X68.325 Y83.881 E54.30718
G1 X68.237 Y83.793
G0 F2625 X68.633 Y84.896
G1 F900 X77.101 Y93.364 E54.70609
G1 X77.189 Y93.452
G0 F2625 X76.087 Y93.058
M104 S205
G1 F900 X68.94 Y85.91 E55.0428
G1 X68.852 Y85.822
G0 F2625 X69.717 Y87.395
G1 F900 X74.602 Y92.28 E55.27292
G1 X74.69 Y92.368
G0 F2625 X72.001 Y90.385
G1 F900 X71.612 Y89.997 E55.29122
;MESH:NONMESH
G0 F2625 X83.669 Y67.618
G0 X83.688 Y67.52
;TIME_ELAPSED:120.060868
;LAYER:1
M425 F0.325
M140 S60
M221 S100 T0
M106 S255
;MESH:
G0 F6562.5 X83.688 Y67.52 Z0.675
;TYPE:WALL-INNER
G1 F1350 X86.259 Y68.299 E55.34386
G1 X88.639 Y69.572 E55.39675
G1 X90.72 Y71.28 E55.4495
G1 X92.428 Y73.361 E55.50225
G1 X93.701 Y75.741 E55.55513
G1 X94.48 Y78.312 E55.60777
G1 X94.746 Y81 E55.6607
G1 X94.48 Y83.688 E55.71363
G1 X93.701 Y86.259 E55.76627
G1 X92.428 Y88.639 E55.81915
G1 X90.72 Y90.72 E55.8719
G1 X88.639 Y92.428 E55.92465
G1 X86.259 Y93.701 E55.97754
G1 X83.688 Y94.48 E56.03018
G1 X81 Y94.746 E56.08311
G1 X78.312 Y94.48 E56.13603
G1 X75.741 Y93.701 E56.18867
G1 X73.361 Y92.428 E56.24156
G1 X71.28 Y90.72 E56.29431
G1 X69.572 Y88.639 E56.34706
G1 X68.299 Y86.259 E56.39995
G1 X67.52 Y83.688 E56.45259
G1 X67.254 Y81 E56.50551
G1 X67.52 Y78.312 E56.55844
G1 X68.299 Y75.741 E56.61108
G1 X69.572 Y73.361 E56.66396
G1 X71.28 Y71.28 E56.71672
G1 X73.361 Y69.572 E56.76947
G1 X75.741 Y68.299 E56.82235
G1 X78.312 Y67.52 E56.87499
G1 X81 Y67.254 E56.92792
G1 X83.688 Y67.52 E56.98085
G0 F6562.5 X83.782 Y67.026
;TYPE:WALL-OUTER
G1 F1350 X86.454 Y67.836 E57.03555
G1 X88.915 Y69.152 E57.09024
G1 X91.075 Y70.925 E57.14499
G1 X92.848 Y73.085 E57.19975
G1 X94.164 Y75.546 E57.25443
